src/icons/aws-cloud-directory.svg

<?xml version="1.0" encoding="UTF-8"?>
<svg xmlns="http://www.w3.org/2000/svg" xmlns:xlink="http://www.w3.org/1999/xlink" width="32" height="32" viewBox="0 0 32 32" version="1.1">
<defs>
<linearGradient id="linear0" gradientUnits="userSpaceOnUse" x1="0" y1="1" x2="1" y2="0" gradientTransform="matrix(32,0,0,32,0,0)">
<stop offset="0" style="stop-color:rgb(74.117649%,3.137255%,8.627451%);stop-opacity:1;"/>
<stop offset="1" style="stop-color:rgb(100%,32.156864%,32.156864%);stop-opacity:1;"/>
</linearGradient>
</defs>
<g id="surface1">
<rect x="0" y="0" width="32" height="32" style="fill:url(#linear0);stroke:none;"/>
<path style=" stroke:none;fill-rule:evenodd;fill:rgb(100%,100%,100%);fill-opacity:1;" d="M 20 23 C 19.585938 23 19.25 22.664062 19.25 22.25 C 19.25 21.835938 19.585938 21.5 20 21.5 C 20.414062 21.5 20.75 21.835938 20.75 22.25 C 20.75 22.664062 20.414062 23 20 23 M 16.75 22.25 C 16.75 22.664062 16.414062 23 16 23 C 15.585938 23 15.25 22.664062 15.25 22.25 C 15.25 21.835938 15.585938 21.5 16 21.5 C 16.414062 21.5 16.75 21.835938 16.75 22.25 M 12.75 22.25 C 12.75 22.664062 12.414062 23 12 23 C 11.585938 23 11.25 22.664062 11.25 22.25 C 11.25 21.835938 11.585938 21.5 12 21.5 C 12.414062 21.5 12.75 21.835938 12.75 22.25 M 14.5 14.5 C 14.5 13.671875 15.171875 13 16 13 C 16.828125 13 17.5 13.671875 17.5 14.5 C 17.5 15.328125 16.828125 16 16 16 C 15.171875 16 14.5 15.328125 14.5 14.5 M 20.5 20.582031 L 20.5 18.5 C 20.5 18.222656 20.277344 18 20 18 L 16.5 18 L 16.5 16.949219 C 17.640625 16.71875 18.5 15.707031 18.5 14.5 C 18.5 13.121094 17.378906 12 16 12 C 14.621094 12 13.5 13.121094 13.5 14.5 C 13.5 15.707031 14.359375 16.71875 15.5 16.949219 L 15.5 18 L 12 18 C 11.722656 18 11.5 18.222656 11.5 18.5 L 11.5 20.582031 C 10.78125 20.796875 10.25 21.460938 10.25 22.25 C 10.25 23.214844 11.035156 24 12 24 C 12.964844 24 13.75 23.214844 13.75 22.25 C 13.75 21.460938 13.21875 20.796875 12.5 20.582031 L 12.5 19 L 15.5 19 L 15.5 20.582031 C 14.78125 20.796875 14.25 21.460938 14.25 22.25 C 14.25 23.214844 15.035156 24 16 24 C 16.964844 24 17.75 23.214844 17.75 22.25 C 17.75 21.460938 17.21875 20.796875 16.5 20.582031 L 16.5 19 L 19.5 19 L 19.5 20.582031 C 18.78125 20.796875 18.25 21.460938 18.25 22.25 C 18.25 23.214844 19.035156 24 20 24 C 20.964844 24 21.75 23.214844 21.75 22.25 C 21.75 21.460938 21.21875 20.796875 20.5 20.582031 M 16 25.617188 C 11.929688 25.617188 9.5 24.683594 9.5 23.785156 L 9.5 9.554688 C 10.882812 10.5 13.496094 11 16 11 C 18.503906 11 21.117188 10.5 22.5 9.554688 L 22.5 23.785156 C 22.5 24.683594 20.070312 25.617188 16 25.617188 M 16 6 C 19.96875 6 22.5 7.183594 22.5 8 C 22.5 8.816406 19.96875 10 16 10 C 12.03125 10 9.5 8.816406 9.5 8 C 9.5 7.183594 12.03125 6 16 6 M 16 5 C 12.363281 5 8.5 6.050781 8.5 8 L 8.5 23.785156 C 8.5 25.871094 12.375 26.617188 16 26.617188 C 19.625 26.617188 23.5 25.871094 23.5 23.785156 L 23.5 8 C 23.5 6.050781 19.636719 5 16 5 "/>
</g>
</svg>

<svg role="img" viewBox="0 0 32 32" xmlns="http://www.w3.org/2000/svg" xmlns:xlink="http://www.w3.org/1999/xlink"><defs><linearGradient gradientTransform="scale(32)" gradientUnits="userSpaceOnUse" id="a" x1="0" x2="1" y1="1" y2="0"><stop offset="0" style="stop-color:rgb(74.117649%,3.137255%,8.627451%);stop-opacity:1"/><stop offset="1" style="stop-color:rgb(100%,32.156864%,32.156864%);stop-opacity:1"/></linearGradient></defs><path d="M0 0h32v32H0z" style="fill:url(#a);stroke:none"/><path d="M20 23a.75.75 0 1 1 0-1.5.75.75 0 0 1 0 1.5m-3.25-.75a.75.75 0 1 1-1.5 0 .75.75 0 0 1 1.5 0m-4 0a.75.75 0 1 1-1.5 0 .75.75 0 0 1 1.5 0m1.75-7.75a1.5 1.5 0 1 1 3 0 1.5 1.5 0 0 1-3 0m6 6.082V18.5c0-.277-.223-.5-.5-.5h-3.5v-1.05c1.14-.231 2-1.243 2-2.45 0-1.379-1.121-2.5-2.5-2.5a2.502 2.502 0 0 0-2.5 2.5c0 1.207.86 2.219 2 2.45V18H12c-.277 0-.5.223-.5.5v2.082a1.747 1.747 0 0 0-1.25 1.668c0 .965.785 1.75 1.75 1.75s1.75-.785 1.75-1.75c0-.79-.531-1.453-1.25-1.668V19h3v1.582a1.747 1.747 0 0 0-1.25 1.668c0 .965.785 1.75 1.75 1.75s1.75-.785 1.75-1.75c0-.79-.531-1.453-1.25-1.668V19h3v1.582a1.747 1.747 0 0 0-1.25 1.668c0 .965.785 1.75 1.75 1.75s1.75-.785 1.75-1.75c0-.79-.531-1.453-1.25-1.668M16 25.617c-4.07 0-6.5-.933-6.5-1.832V9.555C10.883 10.5 13.496 11 16 11s5.117-.5 6.5-1.445v14.23c0 .899-2.43 1.832-6.5 1.832M16 6c3.969 0 6.5 1.184 6.5 2 0 .816-2.531 2-6.5 2S9.5 8.816 9.5 8c0-.816 2.531-2 6.5-2m0-1c-3.637 0-7.5 1.05-7.5 3v15.785c0 2.086 3.875 2.832 7.5 2.832s7.5-.746 7.5-2.832V8c0-1.95-3.863-3-7.5-3" style="stroke:none;fill-rule:evenodd;fill:rgb(100%,100%,100%);fill-opacity:1"/></svg>
